X:1
T: The Starry Eyed Lassie
T: 8 x 32J3C (RSCDS Bk 23)
P: Miss Elizabeth Ferguson's Favourite
C: Petrie's 3rd/RSCDS Bk 23, arr. T. Traub, 5-17-2000
L: 1/8
M: 6/8
%
K: A
|: cd|"A"e2 c "D"f2 d|"A"e2 c A2 g|"A"a2 e c2 A|"E"GBB Bcd|"A"e2 c "D"f2 d|"E"g2 e "D"a2 f|
"A"eac "E"BGE|"A"AAA A :| cB|"A"A2 E C2 A,|"Bm"F2 D B,2 F|"E"GBB BcB|"A"Acc c2 B|
"A"AGF EDC|"E"EAG "A"A2 E|"D"FBA "E"GFE|"A"AAA AcB || "A"A2 E C2 A,|"Bm"F2 D B,2 F|
"E"GBB BcB|"A"Acc c2 d|"A"ecf "Bm"dBf|"E"eag "A"acA|"D"Fdf "E"eEG|"A"AAA A2 |]
